svgs/sharp-thin/seat-airline.svg

<svg xmlns="http://www.w3.org/2000/svg" viewBox="0 0 448 512"><!--! Font Awesome Pro 6.6.0 by @fontawesome - https://fontawesome.com License - https://fontawesome.com/license (Commercial License) Copyright 2024 Fonticons, Inc. --><path d="M16 8l0-8L0 0 0 8 0 160l0 1.7 .7 1.6 112 248 2.1 4.7 5.2 0 112 0 0 80-128 0-8 0 0 16 8 0 128 0 16 0 128 0 8 0 0-16-8 0-128 0 0-80 144 0 5.9 0 1.8-5.6 40-128 3.2-10.4L432 272 72 272l-4.6 0L38.5 208 344 208l8 0 0-16-8 0L32 192l-.8 0L16 158.3 16 8zM125.2 400L74.6 288l346.5 0-35 112-261 0z"/></svg>

<svg xmlns="http://www.w3.org/2000/svg" viewBox="0 0 448 512"><!--! Font Awesome Pro 6.5.2 by @fontawesome - https://fontawesome.com License - https://fontawesome.com/license (Commercial License) Copyright 2024 Fonticons, Inc. --><path d="M16 8V0H0V8 160v1.7l.7 1.6 112 248 2.1 4.7H120 232v80H104 96v16h8H232h16H376h8V496h-8H248V416H392h5.9l1.8-5.6 40-128 3.2-10.4H432 72 67.4L38.5 208H344h8V192h-8H32h-.8L16 158.3V8zM125.2 400L74.6 288H421.1l-35 112h-261z"/></svg>
